src/assets/images/pow.svg

<svg width="64" height="67" viewBox="0 0 64 67" fill="none" xmlns="http://www.w3.org/2000/svg">
<path d="M29.7993 61.2764C25.5551 59.3226 20.7442 55.76 15.7732 52.4582C12.9512 50.5846 10.2765 48.5305 8.21857 45.8221C6.09336 43.0262 5.90404 40.5197 7.51784 38.0105C9.04528 35.6361 11.7118 34.5942 14.9612 35.2602C18.2434 35.9334 21.4245 36.0275 24.742 35.2346C30.2958 33.9055 35.3539 37.7544 35.58 43.3698C35.7066 46.5079 37.4714 48.7545 39.2074 51.0821C40.589 52.9349 41.4308 54.9045 40.8384 57.2361C39.6039 62.0818 36.4386 63.5347 29.7993 61.2764Z" fill="white"/>
<path d="M40.8406 17.7106C39.8378 20.2642 38.642 22.6919 36.4294 24.4683C33.2797 26.997 29.9585 26.4027 27.8975 22.9449C24.3995 17.0749 26.3331 10.143 32.2703 7.26131C36.8755 5.02712 40.564 6.90462 41.392 11.8964C41.7241 13.8903 41.4096 15.8116 40.8406 17.7106Z" fill="white"/>
<path d="M40.0031 23.8946C41.714 20.3915 44.1414 16.7839 48.6761 15.2382C53.1739 13.7055 56.4609 16.0268 56.6632 20.7517C56.9584 27.6317 50.997 33.0765 44.0901 32.2384C40.0816 31.7521 38.3492 28.5989 40.0031 23.8946Z" fill="white"/>
<path d="M23.7814 26.1463C22.4829 29.8754 19.9722 32.3137 15.9089 32.8292C11.4791 33.3906 8.01692 29.5275 9.30761 25.339C10.5829 21.2014 13.2838 18.0267 17.2071 16.0475C19.9454 14.6661 21.8961 15.4123 23.2777 18.1764C24.5654 20.7529 24.7473 23.4272 23.7814 26.1463Z" fill="white"/>
<path d="M54.2665 44.7967C53.3512 47.2527 51.6144 50.1395 48.4297 51.8716C45.4069 53.516 43.0253 52.5486 41.9837 49.2468C40.8058 45.5187 41.1485 41.8553 43.0942 38.5096C44.797 35.5821 49.9547 34.1965 52.9319 35.6234C55.3259 36.7686 55.9401 39.9501 54.2665 44.7967Z" fill="white"/>
</svg>

<svg xmlns="http://www.w3.org/2000/svg" width="64" height="67" fill="none" viewBox="0 0 64 67"><path fill="#fff" d="M29.8 61.276c-4.245-1.953-9.056-5.516-14.027-8.818-2.822-1.873-5.496-3.927-7.554-6.636-2.126-2.796-2.315-5.302-.701-7.812 1.527-2.374 4.194-3.416 7.443-2.75 3.282.673 6.463.768 9.781-.025 5.554-1.33 10.612 2.52 10.838 8.135.127 3.138 1.891 5.385 3.627 7.712 1.382 1.853 2.224 3.822 1.631 6.154-1.234 4.846-4.4 6.299-11.039 4.04M40.84 17.71c-1.002 2.554-2.198 4.982-4.41 6.758-3.15 2.529-6.471 1.935-8.532-1.523-3.498-5.87-1.565-12.802 4.372-15.684 4.605-2.234 8.294-.356 9.122 4.635.332 1.994.018 3.916-.551 5.815M40.003 23.895c1.711-3.503 4.138-7.111 8.673-8.657 4.498-1.532 7.785.789 7.987 5.514.295 6.88-5.666 12.325-12.573 11.486-4.008-.486-5.74-3.64-4.087-8.343M23.781 26.146c-1.298 3.73-3.809 6.168-7.872 6.683-4.43.562-7.892-3.302-6.601-7.49 1.275-4.138 3.976-7.312 7.9-9.291 2.737-1.382 4.688-.636 6.07 2.128 1.287 2.577 1.47 5.251.503 7.97M54.267 44.797c-.916 2.456-2.653 5.343-5.837 7.075-3.023 1.644-5.405.677-6.446-2.625-1.178-3.728-.836-7.392 1.11-10.737 1.703-2.928 6.86-4.313 9.838-2.887 2.394 1.146 3.008 4.327 1.334 9.174"/></svg>
